X: 14096
T: TAMMY'S WALTZ NO. 2
C: Bob McQuillen 20 March 2009
B: Bob's Note Book 14 #96
%R: waltz
%D:2009
Z: 2020 John Chambers <jc:trillian.mit.edu>
M: 3/4
L: 1/8
K: G	% ending in Em
GE \
| "G"D2 G3 A | "Bm"B2 d4 | "C"e2 de gb | "Em"ag e4 | "G"d2 eg ed | "Am"B2 A2 GA | "Em"B2 dB AG | "Em"E4 GE |
| "G"D2 G3 A | "Bm"B2 d4 | "C"e2 de gb | "Em"ag e4 | "G"g2 ge dg | "C"ed B2 dB | "C6"AG E2 G2 | "G"G4 ||
|| Bd \
| "C"e2 ed eg | "Bm"dB G2 GB | "Am"A2 A2 GA | "Bm"B4 cd | "C"e2 ef gf | "Bm"ed B2 cd | "G"e2 e2fg | "C"a4 gf |
| "C"e2 ef ge | "Bm"d2 B2 gf | "Em"e2 ef gf | "Bm"e2 d2 Bd | "Em"e2 Bd ed | "Am"B2 A2 BA | "Em"G2 E2 ED | "Em"E4 |]
%%begintext align
%% For my beloved daughter-in-law,
%% Tammy McQuillen.
%%endtext

%%sep 1 1 500

%%sep 1 1 500

